X:1
T:In Haiti, There Is Anguish
T:In Haiti, There Is Anguish
T:Frederick Charles Maker, 1881
T:Carolyn Winfrey Gillette, 2010
T:© 2010 Carolyn Winfrey Gillette Courtesy of the Cyber Hymnal™
T:© 2010 Carolyn Winfrey Gillette Courtesy of the Cyber Hymnal™
C:Frederick Charles Maker, 1881
Z:© 2010 Carolyn Winfrey Gillette
Z:Courtesy of the Cyber Hymnal™
%%score ( 1 2 ) 3
L:1/8
Q:1/4=107
M:4/4
K:Db
V:1 treble 
V:2 treble 
V:3 bass 
V:1
 [FA]2 | [FA]3 [FA] [=E=G]2 [EB]2 | [FA]4 [DF]2 D2 | [CE]3 [DF] [DG]2 [CG]2 | [DF]6 [EF]2 | %5
w: 1.~In|Hai- ti, there is|ang- uish that|seems too much to|bear; A|
w: 2.~A|wo- man sifts through|rub- ble, a|man has lost his|home, A|
w: 3.~O|God, you love your|child- ren; you|hear each lift- ed|prayer! May|
w: 4.~Where|are you in the|ang- uish? Lord,|may we hear a-|new That|
 [Dd]3 [Dd] [Dd]2 [Ec]2 | [FB]2 [FA]2 [EG]2 [DF]2 | [DE]3 [DE] [D=E]2 [B,E]2 | [CF]6 [DF]2 | %9
w: land so used to|sor- row now knows|ev- en more des-|pair. From|
w: hun- gry, or- phaned|tod- dler sobs, for|she is now a-|lone. Where|
w: all who suf- fer|in that land know|you are pre- sent|there. In|
w: an- y- where your|world cries out, you’re|there— and suff- ering,|too. And|
 [DF]3 [CE] D2 [DE]2 | [DF]2 [DG]2 [DA]2 [DA]2 | [DB]3 [DB] [=DB]2 [DF]2 | [EG]6 [EG]2 | %13
w: ci- ty streets, the|cries of grief rise|up to hills a-|bove; In|
w: are you, Lord, when|thou- sands die— the|rich, the poor- est|poor? Were|
w: mo- ments of com-|pass- ion shown, in|sim- ple acts of|grace, May|
w: may we see, in|o- thers’ pain, the|cross we’re called to|bear; Send|
 [Gc]3 [GB] [GA]2 [CG]2 | [DF]2 [DF]2 [DA]2 [DG]2 | [DF]3 D [CF]2 [CE]2 | D6 |] %17
w: all the sor- row,|pain and death, where|are you, God of|love?|
w: you the ve- ry|first to cry for|all that is no|more?|
w: those in pain find|heal- ing balm, and|know your love’s em-|brace.|
w: out your church in|Je- sus’ name to|pray, to serve, to|share.|
V:2
 x2 | x8 | x6 D2 | x8 | x8 | x8 | x8 | x8 | x8 | x4 D2 x2 | x8 | x8 | x8 | x8 | x8 | x8 | D6 |] %17
V:3
 [D,A,]2 | [D,A,]3 [D,A,] [D,B,]2 [D,=G,]2 | [D,A,]4 [D,A,]2 [F,A,]2 | %3
 [G,A,]3 [F,A,] [E,B,]2 [A,,A,]2 | [D,A,]6 [C,=A,]2 | [B,,B,]3 [B,,B,] [B,,B,]2 [C,=A,]2 | %6
 [D,B,]2 [=D,B,]2 [E,B,]2 [F,B,]2 | [G,B,]3 [G,B,] [G,B,]2 [G,B,]2 | [F,=A,]6 [D,_A,]2 | %9
 [D,A,]3 [D,G,] [D,F,]2 [D,G,]2 | [D,A,]2 [D,B,]2 [D,_C]2 [F,C]2 | %11
 [G,B,]3 [G,B,] [F,B,]2 [B,,B,]2 | [E,B,]6 [E,B,]2 | [A,,E]3 [A,,D] [A,,C]2 [A,,A,]2 | %14
 [D,A,]2 [D,A,]2 [F,,_C]2 [G,,B,]2 | [A,,A,]3 [A,,F,] [A,,A,]2 [A,,G,]2 | [D,F,]6 |] %17

